X:1
T:Un-named polka  in D
%%subtitlespace
C:from Sally's meldoeon playing
%%musicspace
M:2/4
L:1/8
K:Dmaj
|:A/2G/2|"D"FA d2|ed "(G)"B2|"A"{c}BA GF|E3 A/2G/2|
"D"FA dc/2d/2|ed "(G)"B2|"A"{c}BA GE|"D"D3:|
|:"(D)"A/2A/2|"A"AG/2G/2 GB/2B/2|"D"BA/2A/2 A>F|"A"AG E>G|"D"F2-FA/2A/2|
"A"AG/2G/2 GB/2B/2|"D"BA/2A/2 A>F|A/2d/2c/2B/2 "A"A/2G/2F/2E/2|"D"D3:|
